docs/.vuepress/public/svg/ducalis.svg

<svg width="100%" height="100%" viewBox="0 0 196 98" xmlns="http://www.w3.org/2000/svg" xml:space="preserve"
    style="fill-rule:evenodd;clip-rule:evenodd;stroke-linejoin:round;stroke-miterlimit:2">
    <path
        d="M196 14.7v68.6c0 8.113-6.587 14.7-14.7 14.7H14.7C6.587 98 0 91.413 0 83.3V14.7C0 6.587 6.587 0 14.7 0h166.6c8.113 0 14.7 6.587 14.7 14.7Z"
        style="fill:#f2f2f2" />
    <path
        d="M21.212 0v14.064c-1.958-2.846-4.84-4.098-8.414-4.098C3.862 9.966 0 16.798 0 25.168c0 8.368 3.862 15.26 12.798 15.26 3.574 0 6.456-1.254 8.414-4.158v3.588h7.496V0h-7.496Zm-6.858 33.596c-4.786 0-6.86-2.564-6.86-8.428 0-5.808 2.074-8.37 6.86-8.37 4.784 0 6.86 2.562 6.86 8.37 0 5.864-2.076 8.426-6.86 8.426v.002Zm49.144-6.264V10.534h-7.494v16.23c0 5.124-1.788 6.832-6.572 6.832s-6.572-1.708-6.572-6.832v-16.23h-7.494v16.798c0 9.508 5.304 13.096 14.066 13.096 8.764 0 14.066-3.588 14.066-13.096Zm4.9-2.164c0 8.938 4.44 15.26 13.662 15.26 8.532 0 12.97-5.752 12.97-12.526h-7.494c-.23 3.244-1.152 5.692-5.36 5.692-5.072 0-6.284-2.732-6.284-8.426s1.212-8.37 6.284-8.37c4.208 0 5.13 2.448 5.36 5.694h7.494c0-6.776-4.438-12.528-12.97-12.528-9.222 0-13.662 6.264-13.662 15.204Zm57.07 7.574V10.534h-22.482v6.546h14.988v6.268c-1.442-2.108-3.69-3.418-8.014-3.418-7.032 0-10.318 5.01-10.318 10.25 0 5.238 3.286 10.248 10.318 10.248 4.324 0 6.572-1.366 8.014-3.416v2.848h11.24v-7.118h-3.746Zm-12.914 1.536c-3.92 0-5.418-1.822-5.418-4.1 0-2.276 1.498-4.1 5.418-4.1s5.42 1.824 5.42 4.1c0 2.278-1.5 4.1-5.42 4.1ZM134.684 0v39.858h7.494V0h-7.494Zm14.412 0v5.694h7.494V0h-7.494Zm0 10.534v29.324h7.494V10.534h-7.494Zm14.116 26.25c4.208 2.788 8.302 3.644 12.798 3.644 6.744 0 11.99-3.36 11.99-9.168 0-5.636-3.286-7.458-11.932-9.224-4.612-.968-5.362-1.766-5.362-3.188 0-1.31.98-2.05 3.056-2.05 3.17 0 7.724.91 11.932 2.962v-6.834c-2.824-1.936-7.494-2.962-11.356-2.962-6.168 0-11.126 2.676-11.126 8.54 0 4.5 2.594 8.03 11.646 9.398 4.61.74 5.648 1.536 5.648 3.188 0 1.424-1.154 2.504-3.92 2.504-4.266 0-8.128-1.024-13.374-4.27v7.46Z"
        style="fill:#e7b64a;fill-rule:nonzero" transform="translate(4 28.5)" />
</svg>

<?xml version="1.0" encoding="UTF-8" standalone="no"?>
<!DOCTYPE svg PUBLIC "-//W3C//DTD SVG 1.1//EN" "http://www.w3.org/Graphics/SVG/1.1/DTD/svg11.dtd">
<svg width="100%" height="100%" viewBox="0 0 196 98" version="1.1" xmlns="http://www.w3.org/2000/svg" xmlns:xlink="http://www.w3.org/1999/xlink" xml:space="preserve" xmlns:serif="http://www.serif.com/" style="fill-rule:evenodd;clip-rule:evenodd;stroke-linejoin:round;stroke-miterlimit:2;">
    <path d="M196,14.7L196,83.3C196,91.413 189.413,98 181.3,98L14.7,98C6.587,98 0,91.413 0,83.3L0,14.7C0,6.587 6.587,0 14.7,0L181.3,0C189.413,0 196,6.587 196,14.7Z" style="fill:rgb(242,242,242);"/>
    <g transform="matrix(1,0,0,1,4,28.5)">
        <path d="M21.212,0L21.212,14.064C19.254,11.218 16.372,9.966 12.798,9.966C3.862,9.966 0,16.798 0,25.168C0,33.536 3.862,40.428 12.798,40.428C16.372,40.428 19.254,39.174 21.212,36.27L21.212,39.858L28.708,39.858L28.708,0L21.212,0ZM14.354,33.596C9.568,33.596 7.494,31.032 7.494,25.168C7.494,19.36 9.568,16.798 14.354,16.798C19.138,16.798 21.214,19.36 21.214,25.168C21.214,31.032 19.138,33.594 14.354,33.594L14.354,33.596ZM63.498,27.332L63.498,10.534L56.004,10.534L56.004,26.764C56.004,31.888 54.216,33.596 49.432,33.596C44.648,33.596 42.86,31.888 42.86,26.764L42.86,10.534L35.366,10.534L35.366,27.332C35.366,36.84 40.67,40.428 49.432,40.428C58.196,40.428 63.498,36.84 63.498,27.332ZM68.398,25.168C68.398,34.106 72.838,40.428 82.06,40.428C90.592,40.428 95.03,34.676 95.03,27.902L87.536,27.902C87.306,31.146 86.384,33.594 82.176,33.594C77.104,33.594 75.892,30.862 75.892,25.168C75.892,19.474 77.104,16.798 82.176,16.798C86.384,16.798 87.306,19.246 87.536,22.492L95.03,22.492C95.03,15.716 90.592,9.964 82.06,9.964C72.838,9.964 68.398,16.228 68.398,25.168ZM125.468,32.742L125.468,10.534L102.986,10.534L102.986,17.08L117.974,17.08L117.974,23.348C116.532,21.24 114.284,19.93 109.96,19.93C102.928,19.93 99.642,24.94 99.642,30.18C99.642,35.418 102.928,40.428 109.96,40.428C114.284,40.428 116.532,39.062 117.974,37.012L117.974,39.86L129.214,39.86L129.214,32.742L125.468,32.742ZM112.554,34.278C108.634,34.278 107.136,32.456 107.136,30.178C107.136,27.902 108.634,26.078 112.554,26.078C116.474,26.078 117.974,27.902 117.974,30.178C117.974,32.456 116.474,34.278 112.554,34.278ZM134.684,0L134.684,39.858L142.178,39.858L142.178,0L134.684,0ZM149.096,0L149.096,5.694L156.59,5.694L156.59,0L149.096,0ZM149.096,10.534L149.096,39.858L156.59,39.858L156.59,10.534L149.096,10.534ZM163.212,36.784C167.42,39.572 171.514,40.428 176.01,40.428C182.754,40.428 188,37.068 188,31.26C188,25.624 184.714,23.802 176.068,22.036C171.456,21.068 170.706,20.27 170.706,18.848C170.706,17.538 171.686,16.798 173.762,16.798C176.932,16.798 181.486,17.708 185.694,19.76L185.694,12.926C182.87,10.99 178.2,9.964 174.338,9.964C168.17,9.964 163.212,12.64 163.212,18.504C163.212,23.004 165.806,26.534 174.858,27.902C179.468,28.642 180.506,29.438 180.506,31.09C180.506,32.514 179.352,33.594 176.586,33.594C172.32,33.594 168.458,32.57 163.212,29.324L163.212,36.784Z" style="fill:rgb(231,182,74);fill-rule:nonzero;"/>
    </g>
</svg>
